X: 10033
T: FRANCIS'S HORNPIPE
C: Bob McQuillen 9 Nov 93
B: Bob's Note Book 10 #33
%R: hornpipe, reel
Z: 2021 John Chambers <jc:trillian.mit.edu>
M: C
L: 1/8
K: G	% and D
Bc \
| d2dg bage | dedB G2Bd | e2cd egag | f2de dcBc |\
| dBdg bage | dedB G2Bd | egag fdef | a2g2 g2 :|
K: D
|: fg \
| a2af dAde | fafd A2ef | g2e2 efga | bafd egfg |\
| a2af dAde | fafd A2ba | gfed ceag | f2d2 d2 :|
%%begintext align
%% Francis Orzechowski lives
%% up in Newport with his nice family - at 10 yrs old he's Jane and
%% Peter's oldest, and he's a real nice kid; he's always thoughtful and
%% courteous whenever I go up there for our "Old New England" rehearsals. He's
%% a big help to his folks with the younger ones, and don't you think he ought
%% to have this hornpipe? I thought that's what you'd say! I hope you
%% think so, too, Francis!! :-)
%%endtext

%%sep 1 1 500

%%sep 1 1 500

